gnome/icons/Varda/apps/scalable/preferences-system-network.svg

<?xml version="1.0" encoding="UTF-8" standalone="no"?>
<svg
   xmlns:dc="http://purl.org/dc/elements/1.1/"
   xmlns:cc="http://creativecommons.org/ns#"
   xmlns:rdf="http://www.w3.org/1999/02/22-rdf-syntax-ns#"
   xmlns:svg="http://www.w3.org/2000/svg"
   xmlns="http://www.w3.org/2000/svg"
   xmlns:sodipodi="http://sodipodi.sourceforge.net/DTD/sodipodi-0.dtd"
   xmlns:inkscape="http://www.inkscape.org/namespaces/inkscape"
   width="64px"
   height="64px"
   viewBox="0 0 64 64"
   version="1.1"
   id="svg7"
   sodipodi:docname="preferences-system-network.svg"
   inkscape:version="1.0.2 (e86c870879, 2021-01-15)">
  <metadata
     id="metadata13">
    <rdf:RDF>
      <cc:Work
         rdf:about="">
        <dc:format>image/svg+xml</dc:format>
        <dc:type
           rdf:resource="http://purl.org/dc/dcmitype/StillImage" />
      </cc:Work>
    </rdf:RDF>
  </metadata>
  <defs
     id="defs11" />
  <sodipodi:namedview
     pagecolor="#ffffff"
     bordercolor="#666666"
     borderopacity="1"
     objecttolerance="10"
     gridtolerance="10"
     guidetolerance="10"
     inkscape:pageopacity="0"
     inkscape:pageshadow="2"
     inkscape:window-width="2560"
     inkscape:window-height="1403"
     id="namedview9"
     showgrid="false"
     inkscape:zoom="15.75"
     inkscape:cx="32"
     inkscape:cy="32"
     inkscape:window-x="0"
     inkscape:window-y="0"
     inkscape:window-maximized="1"
     inkscape:current-layer="surface1" />
  <g
     id="surface1">
    <path
       style="fill:#0c0e11;fill-opacity:1;fill-rule:nonzero;stroke:none"
       d="m 31.75,3.144531 c 16.074219,0 29.105469,13.03125 29.105469,29.105469 0,16.074219 -13.03125,29.105469 -29.105469,29.105469 C 15.675781,61.355469 2.644531,48.324219 2.644531,32.25 2.644531,16.175781 15.675781,3.144531 31.75,3.144531 Z m 0,0"
       id="path2" />
    <path
       style="fill:#257b76;fill-opacity:1;fill-rule:nonzero;stroke:none"
       d="m 31.796875,3.023438 c -2.800781,0.28125 -5.746094,0.65625 -8.265625,1.925781 -0.21875,1.347656 4.578125,3.121093 0.714844,4.320312 0.472656,2.132813 2.890625,4.070313 3.808594,0.882813 1.617187,-1.5 5.140624,-0.96875 5.824218,-3.589844 1.472656,-2.683594 0.257813,-2.589844 -2.078125,-3.539062 0,0 -0.0039,0 -0.0039,0 z m -8.457031,1.222656 c -1.105469,0.332031 -2.1875,0.726562 -3.234375,1.183594 1.207031,-0.230469 2.664062,-0.59375 3.234375,-1.183594 z m -5.078125,2.1875 C 17.386719,6.75 17.1875,8.03125 16.769531,7.144531 16.710938,7.179688 16.652344,7.21875 16.59375,7.253906 c -0.25,1.367188 -2.175781,2.601563 -1.046875,3.449219 1.039063,-1.402344 3.03125,-3.644531 4.890625,-1.324219 1.621094,1.605469 3.066406,-0.609375 0.800781,-1.242187 C 20.972656,6.675781 18.695312,7.734375 18.261719,6.433594 Z M 46.625,7.542969 c -2.90625,0.09375 -3.96875,2.460937 -5.785156,4.035156 -0.265625,2.816406 2.101562,0.07031 3.210937,2.214844 1.253907,-1.179688 0.06641,-4.144531 2.527344,-4.660157 -0.08203,1.117188 -1.296875,3.417969 0.953125,2.84375 -1.285156,1.023438 -3.566406,4.691407 -4.898438,1.953126 -1,-0.691407 -0.214843,2.167968 -1.871093,1.558593 -0.503907,1.867188 -4.347657,1.582031 -1.933594,3.441407 -1.867187,0.125 -4.136719,2.761718 -1.59375,4.082031 2.4375,0.371093 2.515625,-3.753907 5.25,-3.460938 1.214844,0.796875 2.050781,1.675781 1.917969,2.664063 2.503906,-0.390625 -1.375,-3.921875 1.226562,-2.085938 0.269532,1.238282 1.832032,4.136719 1.820313,1.109375 1.707031,0.191407 2.285156,2.785157 4.402343,2.207031 0.867188,2.492188 -3.390624,2.066407 -4.863281,1.273438 -2.273437,2.324219 -3.15625,-2.546875 -6.0625,-1.527344 -3.335937,-0.0078 -5.710937,2.585938 -7.726562,4.933594 -0.886719,1.992188 -1.414063,4.058594 -1.167969,6.117188 0.753906,2 3.628906,4.964843 5.257812,4.453124 2.023438,-0.859374 4.21875,-0.46875 6.632813,0.01563 1.023437,1.230468 -0.554687,2.835937 1.113281,3.933593 -0.02734,2.261719 1.082032,4.027344 -0.203125,6.132813 -0.05078,2.894531 2.128907,5.269531 2.269531,8.105468 1.785157,-1.105468 3.4375,-2.398437 4.933594,-3.851562 0.01563,-0.05859 0.02734,-0.117188 0.03906,-0.179688 1.574219,-0.96875 -1.285157,-2.65625 1.558593,-3.449218 2.832032,-1.757813 -0.699218,-6.054688 2.035157,-8.324219 1.21875,-1.472656 3.496093,-4.890625 2.382812,-6.015625 -3.292969,-0.0625 2.417969,-2.371094 2.785157,-4.015625 -0.01953,-0.480469 -0.04688,-0.957031 -0.08984,-1.433594 -0.332032,-0.746093 -1.042969,-1.21875 -1.480469,-0.06641 -1.410156,-0.08594 -2.878906,-4.363281 -0.882813,-2.214844 0.609376,-0.214843 1.460938,0.355469 2.203126,0.820313 -0.957032,-7.078125 -4.441407,-13.328125 -9.515626,-17.824219 -0.855468,0.617187 -2.089843,0.113281 -1.882812,-1.273437 0.125,0.00391 0.238281,0.00391 0.347656,0 C 49.085938,8.710938 48.628906,8.378906 48.164062,8.0625 47.640625,7.917969 47.136719,7.722656 46.625,7.542969 Z M 15.140625,8.195312 C 7.578125,13.441406 2.644531,22.1875 2.644531,32.128906 c 0,0.398438 0.00781,0.792969 0.023438,1.1875 1.8125,1.089844 4.320312,1.144532 5.476562,3.160156 1.824219,0.804688 3.828125,1.125 2,3.542969 -1.222656,2.15625 -1.589843,4.671875 0.324219,6.605469 1.050781,2.167969 3.898438,3.738281 2.949219,6.488281 0.488281,0.945313 0.886719,1.679688 1.117187,2.511719 1.558594,1.144531 3.238282,2.136719 5.015625,2.953125 0.191407,-0.210937 0.359375,-0.488281 0.503907,-0.855469 3.308593,-0.550781 0.75,-5.203125 3.574218,-5.921875 3.132813,-1.03125 -0.03125,-5.0625 3.175782,-6.15625 2.089843,-2.914062 -2.578126,-3.554687 -4.394532,-4.578125 C 20.722656,39.980469 20.082031,38.265625 18.09375,37.875 18.05469,34.886719 14.273438,37.496094 13.605469,34.65625 12.117188,33.421875 10.863281,38.46875 8.972656,35.769531 8.316406,34.921875 9.03125,32.484375 7.121094,33.34375 8.085938,31.492188 6.824219,29.523438 5.539062,31.816406 c -3.019531,0.355469 -2.007812,-4.792968 0.5625,-4.886718 1.4375,-0.9375 3.234376,-0.558594 4.210938,0.921874 -0.9375,-3.011718 3.230469,-3.339843 3.070312,-6.09375 1.429688,-1.679687 5.25,-0.835937 5.8125,-3.445312 -0.953124,-0.210938 -4.082031,0.359375 -1.714843,-1.046875 1.726562,-0.734375 6.457031,-0.988281 2.992187,-3.335937 0.6875,-2.503907 -2.230468,-0.246094 -1.894531,-2.324219 -2.507813,-1.9375 -1.9375,2.820312 -3.820313,3.023437 -1.03125,2.925782 -0.910156,-1.101562 -2.933593,-0.71875 -2.734375,-2.429687 4.980469,-3.09375 3.316406,-5.714844 z m 21.25,0.34375 c -1.257813,0.050782 -3.9375,1.136719 -1.304687,1.613282 0.746093,-0.273438 2.8125,-0.640625 1.304687,-1.613282 z m -16.929687,1 c -2.5,1.503907 3.410156,1.851563 0.316406,0.0625 z m 18.570312,3.058594 c 1.039062,1.199219 -0.742188,5.128906 1.765625,3.625 1.222656,-0.949218 -0.957031,-3.277344 -1.765625,-3.625 z m -0.46875,1.59375 c -2.808594,1.101563 1.726562,2.796875 0,0 z m -16.214844,2.398438 c -0.453125,1.675781 1.550782,1.964844 0.59375,0.433594 L 21.613281,16.808594 Z M 52.03125,26.957031 c 1.832031,1.515625 2.183594,4.101563 3.660156,5.78125 -0.140625,1.390625 1.050782,3.511719 -1.097656,1.765625 0.09375,-2.804687 -3.347656,-4.875 -2.898438,-7.417968 z m 0,0"
       id="path4" />
  </g>
</svg>

<?xml version="1.0" encoding="UTF-8"?>
<svg xmlns="http://www.w3.org/2000/svg" xmlns:xlink="http://www.w3.org/1999/xlink" width="64px" height="64px" viewBox="0 0 64 64" version="1.1">
<g id="surface1">
<path style=" stroke:none;fill-rule:nonzero;fill:rgb(36.078432%,41.960785%,75.294119%);fill-opacity:1;" d="M 31.75 3.144531 C 47.824219 3.144531 60.855469 16.175781 60.855469 32.25 C 60.855469 48.324219 47.824219 61.355469 31.75 61.355469 C 15.675781 61.355469 2.644531 48.324219 2.644531 32.25 C 2.644531 16.175781 15.675781 3.144531 31.75 3.144531 Z M 31.75 3.144531 "/>
<path style=" stroke:none;fill-rule:nonzero;fill:rgb(40.000001%,73.333335%,41.568628%);fill-opacity:1;" d="M 31.796875 3.023438 C 28.996094 3.304688 26.050781 3.679688 23.53125 4.949219 C 23.3125 6.296875 28.109375 8.070312 24.246094 9.269531 C 24.71875 11.402344 27.136719 13.339844 28.054688 10.152344 C 29.671875 8.652344 33.195312 9.183594 33.878906 6.5625 C 35.351562 3.878906 34.136719 3.972656 31.800781 3.023438 C 31.800781 3.023438 31.796875 3.023438 31.796875 3.023438 Z M 23.339844 4.246094 C 22.234375 4.578125 21.152344 4.972656 20.105469 5.429688 C 21.3125 5.199219 22.769531 4.835938 23.339844 4.246094 Z M 18.261719 6.433594 C 17.386719 6.75 17.1875 8.03125 16.769531 7.144531 C 16.710938 7.179688 16.652344 7.21875 16.59375 7.253906 C 16.34375 8.621094 14.417969 9.855469 15.546875 10.703125 C 16.585938 9.300781 18.578125 7.058594 20.4375 9.378906 C 22.058594 10.984375 23.503906 8.769531 21.238281 8.136719 C 20.972656 6.675781 18.695312 7.734375 18.261719 6.433594 Z M 46.625 7.542969 C 43.71875 7.636719 42.65625 10.003906 40.839844 11.578125 C 40.574219 14.394531 42.941406 11.648438 44.050781 13.792969 C 45.304688 12.613281 44.117188 9.648438 46.578125 9.132812 C 46.496094 10.25 45.28125 12.550781 47.53125 11.976562 C 46.246094 13 43.964844 16.667969 42.632812 13.929688 C 41.632812 13.238281 42.417969 16.097656 40.761719 15.488281 C 40.257812 17.355469 36.414062 17.070312 38.828125 18.929688 C 36.960938 19.054688 34.691406 21.691406 37.234375 23.011719 C 39.671875 23.382812 39.75 19.257812 42.484375 19.550781 C 43.699219 20.347656 44.535156 21.226562 44.402344 22.214844 C 46.90625 21.824219 43.027344 18.292969 45.628906 20.128906 C 45.898438 21.367188 47.460938 24.265625 47.449219 21.238281 C 49.15625 21.429688 49.734375 24.023438 51.851562 23.445312 C 52.71875 25.9375 48.460938 25.511719 46.988281 24.71875 C 44.714844 27.042969 43.832031 22.171875 40.925781 23.191406 C 37.589844 23.183594 35.214844 25.777344 33.199219 28.125 C 32.3125 30.117188 31.785156 32.183594 32.03125 34.242188 C 32.785156 36.242188 35.660156 39.207031 37.289062 38.695312 C 39.3125 37.835938 41.507812 38.226562 43.921875 38.710938 C 44.945312 39.941406 43.367188 41.546875 45.035156 42.644531 C 45.007812 44.90625 46.117188 46.671875 44.832031 48.777344 C 44.78125 51.671875 46.960938 54.046875 47.101562 56.882812 C 48.886719 55.777344 50.539062 54.484375 52.035156 53.03125 C 52.050781 52.972656 52.0625 52.914062 52.074219 52.851562 C 53.648438 51.882812 50.789062 50.195312 53.632812 49.402344 C 56.464844 47.644531 52.933594 43.347656 55.667969 41.078125 C 56.886719 39.605469 59.164062 36.1875 58.050781 35.0625 C 54.757812 35 60.46875 32.691406 60.835938 31.046875 C 60.816406 30.566406 60.789062 30.089844 60.746094 29.613281 C 60.414062 28.867188 59.703125 28.394531 59.265625 29.546875 C 57.855469 29.460938 56.386719 25.183594 58.382812 27.332031 C 58.992188 27.117188 59.84375 27.6875 60.585938 28.152344 C 59.628906 21.074219 56.144531 14.824219 51.070312 10.328125 C 50.214844 10.945312 48.980469 10.441406 49.1875 9.054688 C 49.3125 9.058594 49.425781 9.058594 49.535156 9.054688 C 49.085938 8.710938 48.628906 8.378906 48.164062 8.0625 C 47.640625 7.917969 47.136719 7.722656 46.625 7.542969 Z M 15.140625 8.195312 C 7.578125 13.441406 2.644531 22.1875 2.644531 32.128906 C 2.644531 32.527344 2.652344 32.921875 2.667969 33.316406 C 4.480469 34.40625 6.988281 34.460938 8.144531 36.476562 C 9.96875 37.28125 11.972656 37.601562 10.144531 40.019531 C 8.921875 42.175781 8.554688 44.691406 10.46875 46.625 C 11.519531 48.792969 14.367188 50.363281 13.417969 53.113281 C 13.90625 54.058594 14.304688 54.792969 14.535156 55.625 C 16.09375 56.769531 17.773438 57.761719 19.550781 58.578125 C 19.742188 58.367188 19.910156 58.089844 20.054688 57.722656 C 23.363281 57.171875 20.804688 52.519531 23.628906 51.800781 C 26.761719 50.769531 23.597656 46.738281 26.804688 45.644531 C 28.894531 42.730469 24.226562 42.089844 22.410156 41.066406 C 20.722656 39.980469 20.082031 38.265625 18.09375 37.875 C 18.054688 34.886719 14.273438 37.496094 13.605469 34.65625 C 12.117188 33.421875 10.863281 38.46875 8.972656 35.769531 C 8.316406 34.921875 9.03125 32.484375 7.121094 33.34375 C 8.085938 31.492188 6.824219 29.523438 5.539062 31.816406 C 2.519531 32.171875 3.53125 27.023438 6.101562 26.929688 C 7.539062 25.992188 9.335938 26.371094 10.3125 27.851562 C 9.375 24.839844 13.542969 24.511719 13.382812 21.757812 C 14.8125 20.078125 18.632812 20.921875 19.195312 18.3125 C 18.242188 18.101562 15.113281 18.671875 17.480469 17.265625 C 19.207031 16.53125 23.9375 16.277344 20.472656 13.929688 C 21.160156 11.425781 18.242188 13.683594 18.578125 11.605469 C 16.070312 9.667969 16.640625 14.425781 14.757812 14.628906 C 13.726562 17.554688 13.847656 13.527344 11.824219 13.910156 C 9.089844 11.480469 16.804688 10.816406 15.140625 8.195312 Z M 36.390625 8.539062 C 35.132812 8.589844 32.453125 9.675781 35.085938 10.152344 C 35.832031 9.878906 37.898438 9.511719 36.390625 8.539062 Z M 19.460938 9.539062 C 16.960938 11.042969 22.871094 11.390625 19.777344 9.601562 Z M 38.03125 12.597656 C 39.070312 13.796875 37.289062 17.726562 39.796875 16.222656 C 41.019531 15.273438 38.839844 12.945312 38.03125 12.597656 Z M 37.5625 14.191406 C 34.753906 15.292969 39.289062 16.988281 37.5625 14.191406 Z M 21.347656 16.589844 C 20.894531 18.265625 22.898438 18.554688 21.941406 17.023438 L 21.613281 16.808594 Z M 52.03125 26.957031 C 53.863281 28.472656 54.214844 31.058594 55.691406 32.738281 C 55.550781 34.128906 56.742188 36.25 54.59375 34.503906 C 54.6875 31.699219 51.246094 29.628906 51.695312 27.085938 Z M 52.03125 26.957031 "/>
</g>
</svg>
